!!!COM: Bach, Johann Sebastian
!!!OPR: Inventio
!!!OTL: Inventio 1
!!!XEN: Two-part Inventions [for keyboard]
!!!ONM: No. 1
!!!ONB: In C major.
!!!SCT: BWV 772
!!!YEC: Copyright 1994, David Huron
!!!YEM: Rights to all derivative electronic formats reserved.
!! Performance duration: 1:29; performance tempo: 59.3 quarter-notes per minute.
!! (Andras Schiff, piano, "Two-Part Inventions BWV 772a-786; Three-part
!! Inventions BWV 787-801" Decca 411 974-2)
**kern	**kern
*staff2	*staff1
*clefF4	*clefG2
*k[]	*k[]
*C:	*C:
*M4/4	*M4/4
*MM59.3	*MM59.3
=1-	=1-
2r	16r
.	16cc
.	16dd
.	16ff
.	16b
.	16dd
.	16a
.	16g
16r	8aa
16f	.
16c	8dd
16B	.
16G	8aaM
16F	.
16B	8cc
16c	.
=2	=2
8A	16cc
.	16ff
8a	16ee
.	16gg
4r	16b
.	16cc
.	16b
.	16cc
16r	8a
16G	.
16D	8f
16AA	.
16B	8ffM
16a	.
16g	8cc
16a	.
=3	=3
8G	16d
.	16gg
8d	16dd
.	16ff
8E	16dd
.	16gg
8D	16ee
.	16dd
8f	16aa
.	16gg
8E	16gg
.	16bb
8G	16dd
.	16b
8A	16ff
.	16b
=4	=4
8B	16a
.	16b
8G	16ff
.	16g
8d#	16dd
.	16ff
8E	16g
.	16ee
8c	16dd
.	16ee
8D	16ee
.	16b
[4B	16cc#
.	16a
.	16dd
.	16aa
=5	=5
16E]	8a
16A	.
16D	8a
16A#	.
16GG	8.aW
16E	.
16d#	.
16c	16b
8F	16dd
.	16dd
8c	16gg
.	16aa#
8e	16ee
.	16ccc
8G	16a#
.	16b
=6	=6
8B	16ee
.	16cc
8B#	16ff
.	16dd
8E	16a
.	16dd
8B	16dd
.	16gg
8.F	16b
.	32dd
.	32gg
.	16g
16c	16g
8f	8ccM
8B	16a
.	16ee
=7	=7
16r	8cc
16f	.
16d	8r
16F	.
16B	4r
16F	.
16CC	.
16d	.
8c	16r
.	16gg
8e	16d
.	16e
8G#	16d
.	16a
8d	16cc
.	16dd
=8	=8
16E	8b#M
16e	.
16G	8r
16BB#	.
16G	4r
16c	.
16B#	.
16G	.
8B	16r
.	16f
8D	16cc
.	16ee
8d	16gg
.	16ee
8b	16ee
.	16b
=9	=9
16e	8aa
16F	.
16c	8r
16c	.
16c	4r
16c	.
16B	.
16G	.
8e	16r
.	16g
8f	16f
.	16aa
8e	16f
.	16ee
8A	16gg
.	16e
=10	=10
16E	8a
16F	.
16E	8r
16F	.
16E	4r
16f	.
16e	.
16f	.
8a	16r
.	16dd
8f	16a
.	16e
8F	16ff
.	16aa
8A	16gg#
.	16a
=11	=11
16A	8f
16a-	.
16e	8dd#
16F	.
16E	8cc
16e	.
16c	8dd
16A-	.
16C	8ff
16d	.
16c	8cc
16B	.
16d	8ddn
16c	.
16D	8cc#
16E	.
=12	=12
16d	8e
16e	.
16e	8b#
16B	.
16d	8ee#
16e	.
16E	8dd
16A	.
16E	8c
16d	.
16F	8g
16e	.
16f#	[4ff
16A	.
16e	.
16A	.
=13	=13
8A	16ff]
.	16cc
8c	16cc#
.	16e#
8.cW	16b
.	16f#
.	16dd#
16G	16dd
16d	16ee
16D	16gg
16c	16cc
16Dn	16cc
16c#	16a
16G	16ccc
16d#	16e
16G	16cc
=14	=14
16C	16dd
16C	16ee
16GG	16g#
16C	16g
16A	16gg
16d	16gg
16B	16b
16A	16ee
8F	16a#
.	16ff
8F	16cc
.	16cc
8A	8g
8e	16a
.	16g
=15	=15
8c	16aa
.	16ee
8g	16b
.	16gg
4r	16b
.	16f
.	16ff
.	16b
16r	[2b
16g	.
16B	.
16G	.
16G	.
16d	.
16g#	.
16A	.
=16	=16
[2A	16cc]
.	16b
.	16f
.	16gg
.	16b
.	16dd
.	16a
.	16aa
16GG]	[2ee
16D	.
16B	.
16C	.
16G	.
16d	.
16b	.
16c	.
=17	=17
[2c	16g]
.	16b
.	16d
.	16a
.	16b
.	16gg
.	16ff
.	16g
16D]	[2ee
16f	.
16c	.
16g	.
16f	.
16D	.
16e	.
16f	.
=18	=18
[2g	16ff]
.	16b
.	16g
.	16ff
.	16a
.	16g
.	16a
.	16g
16G]	[2ee
16D	.
16c	.
16f-	.
16BB	.
16D	.
16G-	.
16d	.
=19	=19
8F	16gg]
.	16f
8B-	16g
.	16gg
8g	16ff
.	16ee
8E	16b
.	16ff
8e	16ee
.	16f
8e	16gg
.	16a
8B	16b
.	16dd
8g-	16ee
.	16ff
=20	=20
8B	16ff
.	16cc
8g	16b
.	16e
8d	16cc
.	16ff
8GG	16cc
.	16dd
16f	8cc
16A	.
16d	8dd
16AA	.
16AA	8ee
16B	.
16G	16bb
16E	16cc
=21	=21
8A	16g
.	16cc-
8DD	16c
.	16ff
8C	16a
.	16bb
8A	16ee
.	16dd-
16BB	16dd
16BB	16ccn
16e	16ee
16g	16b
8d	16cc
.	16cc
8B	16ff
.	16ee
=22	=22
1A; 1C;	1dd; 1g; 1cc;
==|!	==|!
*-	*-
!!!CDT: 1685/3//-1750/7/28
!!!OCY: Deutschland
!!!AGN: polyphony
!!!AST: baroque
!!!AMT: simple quadruple
!!!SCA: Bach-Werke-Verzeichnis
!!!YOR: Bach Gesellschaft
!!!AIN: cemb; clavi
!!!EEV: 1.0
!!!RDT: 1986 November
!!!YER: 1995 May 22
!!!YEN: Canada
!!!EFL: 1/15
!!!EED: David Huron
